packages/tokens/icons/boxUp/size24Px.svg

<svg viewBox="0 0 24 24" fill="none" xmlns="http://www.w3.org/2000/svg" width="1em" height="1em"><path d="M8.75 8.5H7.5C6.39543 8.5 5.5 9.39543 5.5 10.5V19.5C5.5 20.6046 6.39543 21.5 7.5 21.5H16.5C17.6046 21.5 18.5 20.6046 18.5 19.5V10.5C18.5 9.39543 17.6046 8.5 16.5 8.5H15.25" stroke="currentColor" stroke-linecap="round"/><path d="M12 11.5L12 3.5" stroke="currentColor" stroke-linecap="round" stroke-linejoin="round"/><path d="M9 5.5L12 2.5L15 5.5" stroke="currentColor" stroke-linecap="round" stroke-linejoin="round"/></svg>

<svg xmlns="http://www.w3.org/2000/svg" fill="none" viewBox="0 0 24 24" width="1em" height="1em"><path stroke="currentColor" stroke-linecap="round" d="M8.75 8.5H7.5a2 2 0 0 0-2 2v9a2 2 0 0 0 2 2h9a2 2 0 0 0 2-2v-9a2 2 0 0 0-2-2h-1.25"/><path stroke="currentColor" stroke-linecap="round" stroke-linejoin="round" d="M12 11.5v-8m-3 2 3-3 3 3"/></svg>
